X:1
T:Tear the Callies
M:12/8
L:1/8
S:Stanford/Petrie (1905), No. 523
Z:AK/Fiddler’s Companion
K:G
G2E GAB A2G ABd | ede gdB AGA BGE | G2E GAB A2G ABd | ede gdB AGA G2 :|
|: BGG dGG ege dGG | BGG dGG AGA BGE | BGG dGG ege def | g3 aga bgg g3 :|

